Origami/64x64/apps/crossover.svg

<svg width="64" height="64" version="1" xmlns="http://www.w3.org/2000/svg">
 <circle cx="32" cy="33" r="26" style="opacity:.2"/>
 <circle cx="32" cy="32" r="26" style="fill:#cccccc"/>
 <path d="m34.725558 13.001046c1.103423 2.198967 1.987009 4.261735 2.745958 6.249904-2.209166-0.175697-4.292134-0.275596-6.160105-0.242176-17.224535 0.307655-19.838695 9.553653-7.999877 27.643574-2.223966 0.371994-4.641929 0.623991-7.311888 0.723989 31.479516 5.547915 39.65539-3.161951 24.68362-26.035599 2.221966-0.371994 4.649929-0.615991 7.315888-0.715989-3.099953-0.543992-5.951909-0.943985-8.601868-1.213981-1.403978-2.042969-2.921955-4.154936-4.671928-6.409902zm3.648344 8.792865c4.288734 13.354394 0.028839 21.481669-12.757604 24.389624-4.276734-13.345794-0.028579-21.479669 12.757604-24.389624zm-13.499792 24.561622c-0.500913 0.103338-1.005405 0.204857-1.531217 0.292955 0.526392-0.088 1.026605-0.192097 1.531217-0.292955zm-0.285156 2.218766c1.406918 2.047968 2.928555 4.164535 4.683528 6.425701-1.101223-2.194567-1.983949-4.253335-2.742158-6.238104-0.62605-0.0499-1.2879-0.120818-1.94137-0.187497z" style="opacity:.1"/>
 <path d="m34.727558 12.000739c22.585652 29.097552 16.343748 40.557376-18.727712 34.375471 23.545638-0.873987 29.789542-12.33181 18.727712-34.375471" style="fill:#f37421"/>
 <path d="m31.311611 18.008647c-17.224535 0.307655-19.838695 9.553053-7.999877 27.643574 0.795348-0.132638 1.573976-0.273976 2.312364-0.441393-5.231919-16.289749 2.199966-24.835618 22.375656-25.585606-6.575899-1.157982-12.137813-1.697374-16.687743-1.615975zm-6.722497 29.565544c1.406918 2.047969 2.928555 4.164536 4.683528 6.425701-1.101223-2.194566-1.983969-4.253334-2.742158-6.238104-0.62605-0.0499-1.2879-0.120818-1.94137-0.187497z" style="fill:#2183f3"/>
 <path d="M 32 6 A 26 26 0 0 0 6 32 A 26 26 0 0 0 6.0215 32.59 A 26 26 0 0 1 32 7 A 26 26 0 0 1 57.979 32.41 A 26 26 0 0 0 58 32 A 26 26 0 0 0 32 6 z" style="fill:#ffffff;opacity:.2"/>
</svg>

<svg xmlns="http://www.w3.org/2000/svg" width="64" height="64" version="1">
 <circle style="opacity:0.2" cx="32" cy="33" r="26"/>
 <circle style="fill:#cccccc" cx="32" cy="32" r="26"/>
 <path style="opacity:0.1" d="m 34.725558,13.001046 c 1.103423,2.198967 1.987009,4.261735 2.745958,6.249904 -2.209166,-0.175697 -4.292134,-0.275596 -6.160105,-0.242176 -17.224535,0.307655 -19.838695,9.553653 -7.999877,27.643574 -2.223966,0.371994 -4.641929,0.623991 -7.311888,0.723989 31.479516,5.547915 39.65539,-3.161951 24.68362,-26.035599 2.221966,-0.371994 4.649929,-0.615991 7.315888,-0.715989 -3.099953,-0.543992 -5.951909,-0.943985 -8.601868,-1.213981 -1.403978,-2.042969 -2.921955,-4.154936 -4.671928,-6.409902 z m 3.648344,8.792865 C 42.662636,35.148305 38.402741,43.27558 25.616298,46.183535 21.339564,32.837741 25.587719,24.703866 38.373902,21.793911 Z M 24.87411,46.355533 c -0.500913,0.103338 -1.005405,0.204857 -1.531217,0.292955 0.526392,-0.088 1.026605,-0.192097 1.531217,-0.292955 z m -0.285156,2.218766 c 1.406918,2.047968 2.928555,4.164535 4.683528,6.425701 -1.101223,-2.194567 -1.983949,-4.253335 -2.742158,-6.238104 -0.62605,-0.0499 -1.2879,-0.120818 -1.94137,-0.187497 z"/>
 <path style="fill:#f37421" d="M 34.727558,12.000739 C 57.31321,41.098291 51.071306,52.558115 15.999846,46.37621 39.545484,45.502223 45.789388,34.0444 34.727558,12.000739"/>
 <path style="fill:#2183f3" d="M 31.311611,18.008647 C 14.087076,18.316302 11.472916,27.5617 23.311734,45.652221 24.107082,45.519583 24.88571,45.378245 25.624098,45.210828 20.392179,28.921079 27.824064,20.37521 47.999754,19.625222 41.423855,18.46724 35.861941,17.927848 31.312011,18.009247 Z m -6.722497,29.565544 c 1.406918,2.047969 2.928555,4.164536 4.683528,6.425701 -1.101223,-2.194566 -1.983969,-4.253334 -2.742158,-6.238104 -0.62605,-0.0499 -1.2879,-0.120818 -1.94137,-0.187497 z"/>
 <path style="opacity:0.2;fill:#ffffff" d="M 32 6 A 26 26 0 0 0 6 32 A 26 26 0 0 0 6.0215 32.59 A 26 26 0 0 1 32 7 A 26 26 0 0 1 57.979 32.41 A 26 26 0 0 0 58 32 A 26 26 0 0 0 32 6 z"/>
</svg>
